!!!COM: Bach, Johann Sebastian
!!!CDT: 1685/3/-1750/7/28
!!!OPR@@DE: Das wohltemperierte Klavier
!!!OPR@EN: The Well-Tempered Clavier
!!!OTL: The Well-Tempered Clavier, Book 1, Fugue 6 in D minor
!!!SCT: BWV 851b
!!!parts: 3
!!!RNB: The texture increases to four voices in the final two measures.
**kern	**kern	**kern
*staff2	*staff1	*staff1
*clefF4	*clefG2	*clefG2
*k[b-]	*k[b-]	*k[b-]
*M3/4	*M3/4	*M3/4
*d:	*d:	*d:
*MM78	*MM78	*MM78
=1	=1	=1
2.r	2.r	8r
.	.	8d
.	.	8eL
.	.	8fJ
.	.	8gL
.	.	8eJ
=2	=2	=2
2.r	2.r	16fL
.	.	(16d
.	.	16c#
.	.	16d)J
.	.	4b-'
.	.	4gT
=3	=3	=3
2.r	8r	[4a
.	8A	.
.	8BnL	16a]L
.	.	16g
.	8cJ	16f
.	.	16eJ
.	8dL	16gL
.	.	16f
.	8BJ	16e
.	.	16dJ
=4	=4	=4
2.r	16cL	8eL
.	(16A	.
.	16G#	[8ccJ
.	16A)J	.
.	4f'	16cc]L
.	.	16bn
.	.	16a
.	.	16bJ
.	4dT	16bL
.	.	16a
.	.	16g#
.	.	16aJ
=5	=5	=5
2.r	[4e	16aL
.	.	16gn
.	.	16f#
.	.	16gJ
.	16e]L	4ee
.	16d	.
.	16c#	.
.	16BnJ	.
.	16dL	4g
.	16c#	.
.	16B	.
.	16AJ	.
=6	=6	=6
8r	4d	8fL
8D	.	[8ddJ
8EL	4r	16dd]L
.	.	16cc
8FJ	.	16b-
.	.	16aJ
8GL	4r	16ccL
.	.	16b-
8EJ	.	16a
.	.	16gJ
=7	=7	=7
16FL	8r	4a
16D	.	.
16C#	[8f	.
16DJ	.	.
4B-'	16f]L	[2g
.	16e	.
.	16d	.
.	16eJ	.
4GT	16eL	.
.	16d	.
.	16c#	.
.	16dJ	.
=8	=8	=8
[4A	4c#	8g]L
.	.	8eJ
16A]L	8dL	8fL
16G	.	.
16F	8eJ	8gJ
16EJ	.	.
16GL	8c#L	8aL
16F	.	.
16E	8dJ	8fJ
16DJ	.	.
=9	=9	=9
8GL	8e-L	16b-L
.	.	16g
[8B-J	8dJ	16f#
.	.	16gJ
16B-]L	4g	4ee-
16A	.	.
16G	.	.
16AJ	.	.
16AL	4en	4cc#
16G	.	.
16F	.	.
16GJ	.	.
=10	=10	=10
16GL	16r	4dd
16F	16aL	.
16E	16g	.
16FJ	16aJ	.
16AL	4f	4dd'
16G	.	.
16F	.	.
16GJ	.	.
16GL	4d	4bn
16F	.	.
16E	.	.
16FJ	.	.
=11	=11	=11
16FL	16r	4cc
16E	16gL	.
16D	16f	.
16EJ	16gJ	.
16GL	4e-	4cc
16F	.	.
16E-	.	.
16FJ	.	.
16FL	4c	4a
16E-	.	.
16D	.	.
16E-J	.	.
=12	=12	=12
16E-L	8r	[2.b-
16D	.	.
16C#	8a	.
16DJ	.	.
4B-'	8gL	.
.	8fJ	.
4GT	8enL	.
.	8gJ	.
=13	=13	=13
[4A	4c#	8b-]L
.	.	8aJ
16A]L	8dL	8bnL
16G	.	.
16F	8eJ	8cc#J
16EJ	.	.
16GL	4A	8ddL
16F	.	.
16E	.	8bJ
16DJ	.	.
=14	=14	=14
8EL	8r	16cc#L
.	.	16a
8C#J	8e	16g#
.	.	16aJ
8DL	8dL	4ff'
8EJ	8c#J	.
8FL	8BnL	4ddT
8DJ	8dJ	.
=15	=15	=15
4A	16c#L	8eeL
.	16e	.
.	16f	[8aaJ
.	16eJ	.
8F#L	4A	16aa]L
.	.	16gg
8EJ	.	16ff#
.	.	16eeJ
8DL	4cn	16ggL
.	.	16ff#
8F#J	.	16ee
.	.	16ddJ
=16	=16	=16
4G	16B-L	16ee-L
.	16d	16ccc
.	16e-	8bb-J
.	16dJ	.
8G#L	4Bn	16r
.	.	16aaL
8F#J	.	16gg#
.	.	16ff#J
8EL	[4en	16aaL
.	.	16gg#
8G#J	.	16ff#
.	.	16eenJ
=17	=17	=17
8AL	8e]	16ddL
.	.	16cc
8AAJ	8r	16bn
.	.	16ccJ
8BBnL	4r	16ccL
.	.	16b
8CJ	.	16a
.	.	16bJ
8DL	4r	16bL
.	.	16a
8BBJ	.	16g#
.	.	16aJ
=18	=18	=18
16C#L	8r	[4gn
16AA	.	.
16GG#	8A	.
16AAJ	.	.
4F	8BnL	16g]L
.	.	16f
.	8c#J	16e
.	.	16fJ
4DT	8dL	16fL
.	.	16e
.	8BJ	16d
.	.	16aJ
=19	=19	=19
8EL	16cnL	[2.a
.	16A	.
8FJ	16G#	.
.	16AJ	.
16EL	4f'	.
16D	.	.
16C	.	.
16DJ	.	.
16DL	4dT	.
16C	.	.
16BBn	.	.
16CJ	.	.
=20	=20	=20
8CL	8eL	4a_
8DJ	8fJ	.
8EL	2Bnt	16a]L
.	.	16dd#
8DJ	.	16ee
.	.	16aJ
4E	.	16ccL
.	.	16bn
.	.	16a
.	.	16g#J
=21	=21	=21
8AL	4A	[4aO
8AAJ	.	.
8BBnL	4r	16a]L
.	.	16g
8C#J	.	16f
.	.	16eJ
8DL	4r	16gL
.	.	16f
8BBJ	.	16e
.	.	16dJ
=22	=22	=22
16C#L	2.r	8eL
16AA	.	.
16GG#	.	8eeJ
16AAJ	.	.
4F'	.	8ddL
.	.	8cc#J
4DT	.	8bnL
.	.	8ddJ
=23	=23	=23
8AL	2.r	16cc#L
.	.	16ee
8FJ	.	16ff
.	.	16eeJ
8EL	.	4g'
8DJ	.	.
8C#L	.	[4b-
8EJ	.	.
=24	=24	=24
16DL	2.r	16b-]L
16F	.	16a
16G	.	16g
16FJ	.	16aJ
4AA'	.	16aL
.	.	16g
.	.	16f
.	.	16gJ
4C#t	.	16gL
.	.	16f
.	.	16e
.	.	16fJ
=25	=25	=25
2.D	8r	[4f
.	8d	.
.	8cL	16f]L
.	.	16e
.	8B-J	16f#
.	.	16gJ
.	8AL	16f#L
.	.	16g
.	8cJ	16a
.	.	16gJ
=26	=26	=26
8r	4B-	16gL
.	.	16a
8G	.	16b-
.	.	16aJ
8F#L	2d	16aL
.	.	16bn
8EJ	.	16cc
.	.	16bJ
8DL	.	16bL
.	.	16cc#
8FnJ	.	16dd
.	.	16cc#J
=27	=27	=27
[4E	4G	8cc#L
.	.	8aaJ
16E]L	4r	8ggL
16D	.	.
16C#	.	8ffJ
16BBnJ	.	.
16DL	4r	8eeL
16C#	.	.
16BB	.	8ggJ
16AAJ	.	.
=28	=28	=28
4D	8r	16ffL
.	.	16aa
.	8d	16bb-
.	.	16aaJ
4r	8eL	4cc#
.	8fJ	.
4r	8gL	[4ee
.	8eJ	.
=29	=29	=29
8r	16fL	8ee]L
.	16d	.
8A	16c#	8aJ
.	16dJ	.
8GL	4b-	4dd
8FJ	.	.
8EL	4gT	[4ccn
8GJ	.	.
=30	=30	=30
16F#L	4a	8cc]L
16A	.	.
16B-	.	[8ee-J
16AJ	.	.
*	*clefF4	*
4D'	4F#'	16ee-]L
.	.	16dd
.	.	16cc
.	.	16ddJ
4F#'	4A'	16ddL
.	.	16cc
.	.	16b-
.	.	16ccJ
=31	=31	=31
4GG	16r	16ccL
.	16GL	16b-
.	16F#	16a
.	16GJ	16b-J
4C'	4E'	16ddL
.	.	16cc
.	.	16b-
.	.	16ccJ
4E'	4G'	16ccL
.	.	16b-
.	.	16a
.	.	16b-J
=32	=32	=32
4FF	16r	16b-L
.	16FL	16a
.	16E	16g
.	16FJ	16aJ
4BB-'	4D'	16ccL
.	.	16b-
.	.	16a
.	.	16b-J
4D'	4F'	16b-L
.	.	16a
.	.	16g
.	.	16aJ
=33	=33	=33
2.E	8r	16aL
.	.	16g
.	8F	16f
.	.	16gJ
.	8GL	4ee
.	8AJ	.
.	8B-L	4cc#t
.	8GJ	.
=34	=34	=34
8FL	8AL	[4dd
8DJ	8FJ	.
8EL	8GL	16dd]L
.	.	16cc
8F#J	8AJ	16b-
.	.	16aJ
8GL	4G	16ccL
.	.	16b-
8EJ	.	16a
.	.	16gJ
=35	=35	=35
16F#L	8r	8aL
16D	.	.
16C#	8A	8f#J
16DJ	.	.
8B-L	8GL	8gL
8AJ	8F#J	8aJ
8GL	8EL	8b-L
8B-J	8GJ	8gJ
=36	=36	=36
8AL	8F#L	16aL
.	.	16cc
8GJ	8B-J	[8ee-J
8F#L	8AL	16ee-]L
.	.	16dd
8EJ	8GJ	16cc
.	.	16b-J
8DL	8F#L	16ddL
.	.	16cc
8F#J	8AJ	16b-
.	.	16aJ
=37	=37	=37
8GGL	8GL	16b-L
.	.	16dd
8AJ	8cJ	[8ffJ
8G#L	8BnL	16ff]L
.	.	16ee
8F#J	8AJ	16dd
.	.	16cc#J
8EL	8G#L	16eeL
.	.	16dd
8G#J	8BJ	16cc#
.	.	16bnJ
=38	=38	=38
8AAL	8AL	16cc#L
.	.	16ee
8dJ	8fJ	[8bb-J
8c#L	8eL	16bb-]L
.	.	16aa
8BnJ	8dJ	16gg
.	.	16ffJ
8AL	8c#L	16aaL
.	.	16gg
8c#J	8eJ	16ff
.	.	16eeJ
=39	=39	=39
8dL	8d	16ggL
.	.	16ff
8DJ	8r	16ee
.	.	16ffJ
8EL	4r	16ffL
.	.	16ee
8FJ	.	16dd
.	.	16eeJ
8GL	4r	16eeL
.	.	16dd
8EJ	.	16cc#
.	.	16ddJ
=40	=40	=40
16F#L	8r	[4ccn
16D	.	.
*	*clefG2	*
16C#	8d	.
16DJ	.	.
4B-'	8eL	16cc]L
.	.	16b-
.	8f#J	16a
.	.	16b-J
4GT	8gL	16b-L
.	.	16a
.	8eJ	16g
.	.	16ddJ
=41	=41	=41
8AL	16fnL	[2.dd
.	16d	.
8B-J	16c#	.
.	16dJ	.
16AL	4b-	.
16G	.	.
16F	.	.
16GJ	.	.
16GL	4gT	.
16F	.	.
16E	.	.
16FJ	.	.
=42	=42	=42
8FL	8aL	4dd_
8GJ	8b-J	.
8AL	2et	16dd]L
.	.	16gg#
8GJ	.	16aa
.	.	16ddJ
4A	.	16ffL
.	.	16ee
.	.	16dd
.	.	16cc#J
*	*clefF4	*
=43	=43	=43
*	*	*^
!! Four-voice material to the end:
2.D	8r	2.dd	8r
.	8F# 8D	.	8cc 8a
.	8G 8EL	.	8b- 8gL
.	8A 8F#J	.	8a 8f#J
.	8B- 8GL	.	8g 8eL
.	8G 8EJ	.	8b- 8gJ
=44	=44	=44	=44
2.D;	2.A; 2.F#;	2.dd;	2.a; 2.f#;
*	*	*v	*v
==	==	==
*-	*-	*-
!!!OTA: Das wohltemperirte Clavier
!!!OCY: Deutschland
!!!PPP: Coethen; Cothen
!!!ODT: <1722//
!!!PDT: 1722
!!!AFR: fuga; fugue
!!!AST: polyphony
!!!AMT: simple triple
!!!SCA: Bach-Werke-Verzeichnis
!!!YOR: Bach-Gesellschaft Ausgabe, Band 14
!!!YOO: Breitkopf und Härtel
!!!YOY: 1866
!!!YOE: Franz Kroll (1820-1877)
!!!AIN: cemba; clavi
!!!YEC: Copyright 1994, David Huron
!!!YEM: Rights to all derivative electronic formats reserved.
!!!ENC: David Huron
!!!END: 1986/11/17
!!!EED: David Huron
!!!YER: 1994/08/10
!!!EED2: Craig Stuart Sapp (notational niceties)
!!!EEV: 2020/10/05
!!!EFL: 6/48
